X: 53
T: Maozhuxi laiguo wuzhishan
L: 1/8
M: 2/4
K: C
A2G2 [I:setbarnb 1]| 
c< d-d2 | 
A c d c/ d/ | 
e< d-d2 | 
c AA2 | 
d< c-c2 | 
c2G2 | 
A< G-G2 | 
c c/ d/ c d- | 
d4 | 
e c d/ e/ d- | 
d3c/ A/ | 
c/> d/ d/ c/A2 | 
G4 | 
d cA2 | 
A< G-G2 |]

@@@ Tune index: 8721
